X:11
T:Pavane:Earl of Salisbury
C:Byrd
P:AABB x 2
N:
K:A minor
M:C
L:1/8
P:A
"Am"z2A4c2 | "Esus4"B6E2 | "D"^F3/G/A4"E"^G2 | "A"A4 z2A2 | "Am"c4 "F"zcBA | "G"B4 "Em"zBAG | \
"F Dm"A6A2 |  [1 "E"^G8 :|]  [2 "E"^G4 z4 ::
P:B
"C Dm G"z8 | "C"z6G2 | "C"c4 "G"d4 | \
"C"e3d "Am"c2e2- | "E"e2d3e"Am"c2 | "E"B3A ^GABc | "Esus4"BAA4^G2 |  [1 "A"A4 z4 :|]  [2 "A"A8 |] 

